X: 3513
T: Biddy The Bold
R: jig
M: 6/8
K: Dmajor
|:DEF A2B|AFD d2B|AFA DEF|1 GFG E2 A:|2 E2D D2d||
|:AFA d2c|edc Bcd|AFA DEF|1 GFG E2B:|2 E2D D2d||

